packages/dnb-eufemia/assets/icons/trailer_medium.svg

<svg width="24" height="24" viewBox="0 0 24 24" fill="none" xmlns="http://www.w3.org/2000/svg">
<path d="M9.75 14.25C9.75 15.9069 8.40685 17.25 6.75 17.25C5.09315 17.25 3.75 15.9069 3.75 14.25M9.75 14.25C9.75 12.5931 8.40685 11.25 6.75 11.25C5.09315 11.25 3.75 12.5931 3.75 14.25M9.75 14.25H18.75M3.75 14.25C2.59504 14.25 0.75 14.4263 0.75 12.75V8.25C0.75 7.433 1.433 6.75 2.25 6.75H12.75C16.018 6.75 18.75 9.482 18.75 12.75V14.25M18.75 14.25H23.25" stroke="black" stroke-width="1.5" stroke-linecap="round" stroke-linejoin="round"/>
</svg>

<svg width="24" height="24" viewBox="0 0 24 24" fill="none" xmlns="http://www.w3.org/2000/svg"><path d="M9.75 14.25a3 3 0 1 1-6 0m6 0a3 3 0 1 0-6 0m6 0h9m-15 0c-1.155 0-3 .176-3-1.5v-4.5c0-.817.683-1.5 1.5-1.5h10.5c3.268 0 6 2.732 6 6v1.5m0 0h4.5" stroke="#000" stroke-width="1.5" stroke-linecap="round" stroke-linejoin="round"/></svg>
